X: 1
T: Halling efter Niklas Olsson
R: Halling
O: Bohuslän
N: Från Granquist.
Z: Till abc Jonas Brunskog
M: 2/4
L: 1/16
K: A
A2A2 c2e2 | eddd e4 | A2A2 c2e2 | f[fd][fd][fd] e4 | 
a2fd (fe)e2 | fafd fee2- | eafd fece | edBG A4 ||

